svg/US/NC.svg

<?xml version="1.0" encoding="UTF-8" standalone="no"?>
<svg width="90px" height="65px" viewBox="0 0 90 65" version="1.1" xmlns="http://www.w3.org/2000/svg" xmlns:xlink="http://www.w3.org/1999/xlink">
    <!-- Generator: Sketch 3.7.2 (28276) - http://www.bohemiancoding.com/sketch -->
    <title>North Carolina</title>
    <desc>Created with Sketch.</desc>
    <defs>
        <path d="M10,0 C4.477,0 0,4.477 0,10 L0,55 C0,60.523 4.477,65 10,65 L80,65 C85.523,65 90,60.523 90,55 L90,10 C90,4.477 85.523,0 80,0 L10,0 L10,0 Z" id="path-1"></path>
    </defs>
    <g id="Page-1" stroke="none" stroke-width="1" fill="none" fill-rule="evenodd">
        <g id="North-Carolina">
            <g id="Page-1">
                <mask id="mask-2" fill="white">
                    <use xlink:href="#path-1"></use>
                </mask>
                <g id="Clip-2"></g>
                <polygon id="Fill-1" fill="#F1F2F2" mask="url(#mask-2)" points="0 65 90 65 90 0 0 0"></polygon>
                <polygon id="Fill-3" fill="#00247D" mask="url(#mask-2)" points="0 65 33 65 33 0 0 0"></polygon>
                <polygon id="Fill-4" fill="#CF1B2B" mask="url(#mask-2)" points="33 32 90 32 90 0 33 0"></polygon>
                <path d="M31.3533,17.7901 L26.5953,15.3531 L24.7723,18.9141 L29.5993,21.3861 L28.6703,18.7271 L31.3533,17.7901 Z M3.8293,18.7271 L2.9003,21.3861 L7.7273,18.9141 L5.9043,15.3531 L1.1463,17.7901 L3.8293,18.7271 Z" id="Fill-5" fill="#E89B00" mask="url(#mask-2)"></path>
                <path d="M27.0088,17.7639 C20.2718,14.2309 12.2288,14.2309 5.4908,17.7639 L3.6338,14.2209 C11.5328,10.0779 20.9668,10.0779 28.8658,14.2209 L27.0088,17.7639 Z" id="Fill-6" fill="#FFB200" mask="url(#mask-2)"></path>
                <path d="M1.1467,47.2099 L5.9047,49.6469 L7.7277,46.0859 L2.9007,43.6139 L3.8297,46.2729 L1.1467,47.2099 Z M28.6707,46.2729 L29.5997,43.6139 L24.7727,46.0859 L26.5957,49.6469 L31.3537,47.2099 L28.6707,46.2729 Z" id="Fill-7" fill="#E89B00" mask="url(#mask-2)"></path>
                <path d="M5.4912,47.2361 C12.2282,50.7691 20.2712,50.7691 27.0092,47.2361 L28.8662,50.7791 C20.9672,54.9221 11.5332,54.9221 3.6342,50.7791 L5.4912,47.2361 Z" id="Fill-8" fill="#FFB200" mask="url(#mask-2)"></path>
                <polygon id="Fill-9" fill="#F1F2F2" mask="url(#mask-2)" points="16.25 27.0085 17.483 30.8035 21.473 30.8035 18.245 33.1485 19.478 36.9425 16.25 34.5975 13.022 36.9425 14.255 33.1485 11.027 30.8035 15.017 30.8035"></polygon>
                <polygon id="Fill-10" fill="#FFB200" mask="url(#mask-2)" points="4.6126 27.7039 5.7886 27.7039 7.6366 32.8519 7.6606 32.8519 7.6606 27.7039 8.8846 27.7039 8.8846 36.2479 7.7326 36.2479 5.8606 31.1119 5.8366 31.1119 5.8366 36.2479 4.6126 36.2479"></polygon>
                <path d="M27.8874,34.3396 C27.8874,34.6036 27.8374,34.8556 27.7374,35.0956 C27.6374,35.3356 27.4994,35.5456 27.3234,35.7256 C27.1474,35.9056 26.9414,36.0496 26.7054,36.1576 C26.4694,36.2656 26.2154,36.3196 25.9434,36.3196 C25.7114,36.3196 25.4754,36.2876 25.2354,36.2236 C24.9954,36.1596 24.7794,36.0496 24.5874,35.8936 C24.3954,35.7376 24.2374,35.5316 24.1134,35.2756 C23.9894,35.0196 23.9274,34.6956 23.9274,34.3036 L23.9274,29.5996 C23.9274,29.3196 23.9754,29.0596 24.0714,28.8196 C24.1674,28.5796 24.3034,28.3716 24.4794,28.1956 C24.6554,28.0196 24.8654,27.8816 25.1094,27.7816 C25.3534,27.6816 25.6234,27.6316 25.9194,27.6316 C26.1994,27.6316 26.4594,27.6816 26.6994,27.7816 C26.9394,27.8816 27.1474,28.0216 27.3234,28.2016 C27.4994,28.3816 27.6374,28.5976 27.7374,28.8496 C27.8374,29.1016 27.8874,29.3756 27.8874,29.6716 L27.8874,30.1516 L26.6634,30.1516 L26.6634,29.7436 C26.6634,29.5036 26.5954,29.2956 26.4594,29.1196 C26.3234,28.9436 26.1394,28.8556 25.9074,28.8556 C25.6034,28.8556 25.4014,28.9496 25.3014,29.1376 C25.2014,29.3256 25.1514,29.5636 25.1514,29.8516 L25.1514,34.2196 C25.1514,34.4676 25.2054,34.6756 25.3134,34.8436 C25.4214,35.0116 25.6154,35.0956 25.8954,35.0956 C25.9754,35.0956 26.0614,35.0816 26.1534,35.0536 C26.2454,35.0256 26.3294,34.9796 26.4054,34.9156 C26.4814,34.8516 26.5434,34.7636 26.5914,34.6516 C26.6394,34.5396 26.6634,34.3996 26.6634,34.2316 L26.6634,33.8116 L27.8874,33.8116 L27.8874,34.3396 Z" id="Fill-11" fill="#FFB200" mask="url(#mask-2)"></path>
            </g>
        </g>
    </g>
</svg>

<svg width="90" height="65" viewBox="0 0 90 65" xmlns="http://www.w3.org/2000/svg" xmlns:xlink="http://www.w3.org/1999/xlink"><title>North Carolina</title><defs><path d="M10 0C4.477 0 0 4.477 0 10v45c0 5.523 4.477 10 10 10h70c5.523 0 10-4.477 10-10V10c0-5.523-4.477-10-10-10H10z" id="a"/></defs><g fill="none" fill-rule="evenodd"><mask id="b" fill="#fff"><use xlink:href="#a"/></mask><path fill="#F1F2F2" mask="url(#b)" d="M0 65h90V0H0z"/><path fill="#00247D" mask="url(#b)" d="M0 65h33V0H0z"/><path fill="#CF1B2B" mask="url(#b)" d="M33 32h57V0H33z"/><path d="M31.353 17.79l-4.758-2.437-1.823 3.561 4.827 2.472-.929-2.659 2.683-.937zm-27.524.937l-.929 2.66 4.827-2.473-1.823-3.56-4.758 2.436 2.683.937z" fill="#E89B00" mask="url(#b)"/><path d="M27.009 17.764a23.168 23.168 0 0 0-21.518 0L3.634 14.22a27.165 27.165 0 0 1 25.232 0l-1.857 3.543z" fill="#FFB200" mask="url(#b)"/><path d="M1.147 47.21l4.758 2.437 1.823-3.561L2.9 43.614l.929 2.659-2.683.937zm27.524-.937l.929-2.66-4.827 2.473 1.823 3.56 4.758-2.436-2.683-.937z" fill="#E89B00" mask="url(#b)"/><path d="M5.491 47.236a23.168 23.168 0 0 0 21.518 0l1.857 3.543a27.165 27.165 0 0 1-25.232 0l1.857-3.543z" fill="#FFB200" mask="url(#b)"/><path fill="#F1F2F2" mask="url(#b)" d="M16.25 27.009l1.233 3.794h3.99l-3.228 2.345 1.233 3.794-3.228-2.345-3.228 2.346 1.233-3.794-3.228-2.346h3.99z"/><path fill="#FFB200" mask="url(#b)" d="M4.613 27.704h1.176l1.848 5.148h.024v-5.148h1.224v8.544H7.733L5.86 31.112h-.024v5.136H4.613zM27.887 34.34a1.982 1.982 0 0 1-.564 1.386c-.176.18-.382.324-.618.432a1.81 1.81 0 0 1-.762.162 2.74 2.74 0 0 1-.708-.096 1.718 1.718 0 0 1-.648-.33 1.78 1.78 0 0 1-.474-.618c-.124-.256-.186-.58-.186-.972V29.6c0-.28.048-.54.144-.78a1.836 1.836 0 0 1 1.038-1.038c.244-.1.514-.15.81-.15.28 0 .54.05.78.15a1.866 1.866 0 0 1 1.038 1.068c.1.252.15.526.15.822v.48h-1.224v-.408a.99.99 0 0 0-.204-.624.66.66 0 0 0-.552-.264c-.304 0-.506.094-.606.282-.1.188-.15.426-.15.714v4.368c0 .248.054.456.162.624.108.168.302.252.582.252.08 0 .166-.014.258-.042a.708.708 0 0 0 .252-.138.695.695 0 0 0 .186-.264 1.07 1.07 0 0 0 .072-.42v-.42h1.224v.528z"/></g></svg>
